X: 8537
T: Crested Hens
R: waltz
M: 3/4
K: Dmajor
|:"Em"E3G FE|B4 Bc|"Bm"dc Be dc|dc BA GF|
"Em"E3G FE|B4 Bc|"Bm"dc BA GA|1 B3A GF:|2 B4 ef||
|:"Em"gB Bg gB|"C"=c4ef|"Am"gf ag fe|"B"^d2e2 f2|
"Em"gB Bg gB|"C"=c4ef|"Am"gf "Bm"ag fd|1 "C"e4 ef:|2 "Em"e6||

